X:140
T: Kaeuzlein
N: A0172
O: Europa, Mitteleuropa, Deutschland
N: Forster III 1549 No. 4
R: Romanze, Ballade, Lied
M: 4/2
L: 1/4
K: F
F2 | F2F2A2A2 | F4G2A4
B2 | c4B2A2- | A2GFG2G2 | F4z2
F2 | F4A2G4F2 | C3DE2F4
F2 | A2c2B2AG | F2A2G2G2 | F6

@@@ Tune index: 140
